packages/web-icons/svgs/kakaostory_1.svg

<svg viewBox="0 0 48 48" xmlns="http://www.w3.org/2000/svg" class="ridi_icon"><path d="M44.2 0H3.8C1.7 0 0 1.7 0 3.8v40.3c0 2.1 1.7 3.8 3.8 3.8h40.3c2.1 0 3.8-1.7 3.8-3.8V3.8C48 1.7 46.3 0 44.2 0zM31.8 24.5c-.2 3.7-1.2 10.5-8.3 16-.1.1-.4.1-.5.1-.2 0-.4-.2-.4-.2l-4.1-4.6c-.1-.2-.2-.3-.2-.5 0-.3.1-.5.3-.6 0 0 2.2-1.8 3.2-3.5.9-1.4 1.5-3.1 1.6-4.6h-5.9c-.9-.1-1.5-.7-1.5-1.6V12.4c0-.8.7-1.5 1.5-1.5h12.7c.9 0 1.5.7 1.5 1.5.1 0 .1 12.1.1 12.1z"/></svg>

<?xml version="1.0" encoding="UTF-8"?>
<svg width="48px" height="48px" viewBox="0 0 48 48" version="1.1" xmlns="http://www.w3.org/2000/svg">
  <!-- Generator: Sketch 41.2 (35397) - http://www.bohemiancoding.com/sketch -->
  <title>kakaostory_1</title>
  <desc>Created with Sketch.</desc>
  <defs></defs>
  <g id="Page-1" stroke="none" stroke-width="1" fill="none" fill-rule="evenodd">
    <g id="kakaostory_1" fill="#231F20">
      <g id="Layer_1">
        <path d="M44.2,0 L3.8,0 C1.7,0 0,1.7 0,3.8 L0,44.1 C0,46.2 1.7,47.9 3.8,47.9 L44.1,47.9 C46.2,47.9 47.9,46.2 47.9,44.1 L47.9,3.8 C48,1.7 46.3,0 44.2,0 Z M31.8,24.5 C31.6,28.2 30.6,35 23.5,40.5 C23.4,40.6 23.1,40.6 23,40.6 C22.8,40.6 22.6,40.4 22.6,40.4 L18.5,35.8 C18.4,35.6 18.3,35.5 18.3,35.3 C18.3,35 18.4,34.8 18.6,34.7 C18.6,34.7 20.8,32.9 21.8,31.2 C22.7,29.8 23.3,28.1 23.4,26.6 L17.5,26.6 C16.6,26.5 16,25.9 16,25 L16,12.4 C16,11.6 16.7,10.9 17.5,10.9 L30.2,10.9 C31.1,10.9 31.7,11.6 31.7,12.4 C31.8,12.4 31.8,24.5 31.8,24.5 Z" id="Shape"></path>
      </g>
    </g>
  </g>
</svg>
